X:1
T:The Storyteller
M:6/8
L:1/8
R:set dance
Z:Harry Seaman
Z:To David James
K:G
D/2B,/2|G,B,E DB,G,|CEc A2G|Fd^c =cBA|G/2A/2BG D^C=C|
G,B,E DB,G,|CEc A2G|Fd^c =cBA|1GDB, G,2:||GDB G2||
|:d|dBd bgd|dgb gdB|dBd bgd|c'aa adc|
dBd bgd|dgb gdB|A^cd ecA|A/2B/2cA dDC|B,DE DB,G,|CEc A2G|
Fd^c =cBA| G/2A/2BG D^C=C|B,DE DB,G,|CEc A2G|Fd^c =cBA|GDB G2:||
